Costumes/gift-b.svg

<?xml version="1.0" encoding="UTF-8" standalone="no"?>
<svg
   version="1.1"
   width="71.495323"
   height="66.959663"
   id="svg20"
   sodipodi:docname="gift-b.svg"
   xmlns:inkscape="http://www.inkscape.org/namespaces/inkscape"
   xmlns:sodipodi="http://sodipodi.sourceforge.net/DTD/sodipodi-0.dtd"
   xmlns="http://www.w3.org/2000/svg"
   xmlns:svg="http://www.w3.org/2000/svg">
  <defs
     id="defs24" />
  <sodipodi:namedview
     id="namedview22"
     pagecolor="#ffffff"
     bordercolor="#000000"
     borderopacity="0.25"
     inkscape:showpageshadow="2"
     inkscape:pageopacity="0.0"
     inkscape:pagecheckerboard="0"
     inkscape:deskcolor="#d1d1d1" />
  <!-- Exported by Scratch - http://scratch.mit.edu/ -->
  <g
     id="Gift"
     transform="translate(-0.82153452,-0.33583337)">
    <g
       id="Box">
      <path
         id="Box_Fill"
         fill="#1f519b"
         d="M 30.377,69.562 31.5,88.938 43,94.625 57.062,88.438 58.398,69.562 43.375,65.5 30.377,69.562"
         transform="matrix(1.9799315,0,0,1.9799315,-52.5,-120.6)" />
      <path
         id="Box_Top"
         fill="#3579bc"
         d="M 30.377,69.562 43.292,73.708 58.5,69.562 43.375,65.5 30.377,69.562"
         transform="matrix(1.9799315,0,0,1.9799315,-52.5,-120.6)" />
      <path
         id="Box_Side"
         fill="#2964aa"
         d="M 43.292,73.708 43,94.625 57.062,88.438 58.5,69.562 43.292,73.708"
         transform="matrix(1.9799315,0,0,1.9799315,-52.5,-120.6)" />
      <path
         id="Box_Outline"
         d="M 42.994,94.9 31.259,89.096 30.117,69.382 43.37,65.24 58.662,69.375 57.301,88.605 Z M 31.741,88.778 43.006,94.349 56.824,88.269 58.135,69.749 43.38,65.76 30.638,69.742 Z"
         transform="matrix(1.9799315,0,0,1.9799315,-52.5,-120.6)" />
    </g>
    <path
       id="R_Ribbon"
       fill="#cecece"
       stroke="#000000"
       stroke-width="0.5"
       d="m 35.375,67.917 13.347,4.312 c 0,0 -0.597,20.413 -0.657,20.44 C 48.005,92.696 53,90.656 53,90.656 L 53.891,70.819 39.782,66.446 Z"
       transform="matrix(1.9799315,0,0,1.9799315,-52.5,-120.6)" />
    <path
       id="L_Ribbon"
       fill="#cecece"
       stroke="#000000"
       stroke-width="0.5"
       d="M 48.25,66.75 34.497,70.885 34.821,90.858 38.767,92.81 38.703,72.235 53,68.062 48.25,66.75"
       transform="matrix(1.9799315,0,0,1.9799315,-52.5,-120.6)" />
    <g
       id="Bow">
      <g
         id="ID0.16421956615522504">
        <path
           id="ID0.3979996433481574"
           fill="#cecece"
           d="m 52.517,70.871 c -4.011,0 -7.617,-0.673 -8.755,-0.909 l 0.568,-0.781 c 1.002,0.053 1.989,0.08 2.938,0.08 9.233,0 13.479,-2.464 14.807,-3.449 -0.245,1.145 -1.263,2.479 -1.274,2.495 l -0.22,0.285 0.345,0.106 c 0.449,0.139 0.88,0.208 1.23,0.241 -2.393,1.282 -5.631,1.932 -9.639,1.932 z"
           transform="matrix(1.9799315,0,0,1.9799315,-52.5,-120.6)" />
        <path
           id="ID0.905133131891489"
           d="m 61.614,66.423 c -0.299,0.713 -0.773,1.421 -1.012,1.731 l -0.438,0.571 0.688,0.212 c 0.166,0.051 0.329,0.093 0.486,0.127 -2.275,1.034 -5.233,1.557 -8.821,1.557 -3.615,0 -6.899,-0.55 -8.323,-0.827 l 0.259,-0.356 c 0.96,0.048 1.906,0.073 2.816,0.073 8.18,-10e-4 12.5,-1.937 14.345,-3.088 m 0.761,-1.183 c 0,0 -3.787,3.771 -15.106,3.771 -0.965,0 -1.983,-0.027 -3.061,-0.087 l -0.875,1.202 c 0,0 4.258,0.996 9.183,0.996 3.625,0 7.61,-0.539 10.525,-2.412 0,0 -0.107,0.009 -0.29,0.009 -0.364,0 -1.032,-0.037 -1.753,-0.259 0.001,-0.002 1.46,-1.897 1.377,-3.22 z"
           transform="matrix(1.9799315,0,0,1.9799315,-52.5,-120.6)" />
      </g>
      <g
         id="ID0.7600986659526825">
        <path
           id="ID0.16094404179602861"
           fill="#cecece"
           d="m 34.563,71.131 c -2.899,0 -5.236,-0.65 -6.958,-1.936 0.259,-0.035 0.575,-0.106 0.904,-0.247 l 0.256,-0.109 -0.136,-0.243 c -0.008,-0.015 -0.698,-1.263 -0.908,-2.393 1.128,1.075 4.246,3.316 10.647,3.316 0.67,0 1.368,-0.025 2.074,-0.076 l 0.416,0.788 c -0.841,0.24 -3.425,0.9 -6.295,0.9 z"
           transform="matrix(1.9799315,0,0,1.9799315,-52.5,-120.6)" />
        <path
           id="ID0.39298297418281436"
           d="m 28.169,66.914 c 1.515,1.177 4.647,2.856 10.199,2.856 0.625,0 1.272,-0.022 1.929,-0.065 l 0.194,0.368 c -1.043,0.277 -3.372,0.807 -5.929,0.807 -2.588,0 -4.714,-0.525 -6.341,-1.563 0.125,-0.038 0.254,-0.083 0.385,-0.139 L 29.118,68.96 28.847,68.474 C 28.689,68.19 28.388,67.572 28.169,66.914 M 27.414,65.5 c -0.061,1.323 0.998,3.219 0.998,3.219 -0.523,0.222 -1.007,0.259 -1.271,0.259 -0.132,0 -0.21,-0.009 -0.21,-0.009 2.114,1.873 5.004,2.412 7.633,2.412 3.571,0 6.659,-0.996 6.659,-0.996 L 40.589,69.183 C 39.808,69.243 39.069,69.27 38.37,69.27 30.16,69.271 27.414,65.5 27.414,65.5 Z"
           transform="matrix(1.9799315,0,0,1.9799315,-52.5,-120.6)" />
      </g>
      <path
         id="ID0.8502797214314342"
         fill="#cecece"
         stroke="#000000"
         stroke-width="0.5"
         d="m 43,67.562 c 0,0 3.562,-2.8 4.875,-4.3 1.313,-1.5 4.393,-2.868 4.799,-1.086 0.406,1.782 0.389,1.637 1.482,2.512 1.093,0.875 1.844,3.156 -1.594,4.375 -3.438,1.219 -6.666,1.459 -8.635,1.178 C 41.958,69.96 42.37,68.063 43,67.562 Z"
         transform="matrix(1.9799315,0,0,1.9799315,-52.5,-120.6)" />
      <path
         id="ID0.009513366967439651"
         fill="#cecece"
         stroke="#000000"
         stroke-width="0.5"
         d="m 41.031,67.203 c 0,0 -1.822,-1.974 -2.76,-2.557 -0.938,-0.583 -2.021,-2.146 -2.917,-0.938 -0.896,1.208 -2.146,1.5 -3.021,2.354 -0.875,0.854 0.208,1.479 1.812,2.188 1.604,0.709 5.457,1.229 6.885,1.312 1.428,0.083 0.74,-1.781 10e-4,-2.359 z"
         transform="matrix(1.9799315,0,0,1.9799315,-52.5,-120.6)" />
      <path
         id="ID0.3380579291842878"
         fill="#cecece"
         stroke="#000000"
         stroke-width="0.5"
         d="m 40.792,70.333 c 0.629,0.352 0.99,0.729 2.876,0.191 0.352,-0.1 0.414,-0.566 -0.085,-1.566 -0.5,-1 0.667,-1.542 -0.625,-1.792 -1.292,-0.25 -2.417,-0.126 -2.375,0.75 0.042,0.876 -0.713,1.902 0.209,2.417 z"
         transform="matrix(1.9799315,0,0,1.9799315,-52.5,-120.6)" />
    </g>
  </g>
</svg>

<svg version="1.1" width="73" height="68" xmlns="http://www.w3.org/2000/svg" xmlns:xlink="http://www.w3.org/1999/xlink">
  <!-- Exported by Scratch - http://scratch.mit.edu/ -->
  <g id="Gift">
    <g id="Box">
      <path id="Box_Fill" fill="#1F519B" d="M 30.377 69.562 L 31.500 88.938 L 43 94.625 L 57.062 88.438 L 58.398 69.562 L 43.375 65.500 L 30.377 69.562 " transform="matrix(1.9799314737319946, 0, 0, 1.9799314737319946, -52.5, -120.6)"/>
      <path id="Box_Top" fill="#3579BC" d="M 30.377 69.562 L 43.292 73.708 L 58.500 69.562 L 43.375 65.500 L 30.377 69.562 " transform="matrix(1.9799314737319946, 0, 0, 1.9799314737319946, -52.5, -120.6)"/>
      <path id="Box_Side" fill="#2964AA" d="M 43.292 73.708 L 43 94.625 L 57.062 88.438 L 58.500 69.562 L 43.292 73.708 " transform="matrix(1.9799314737319946, 0, 0, 1.9799314737319946, -52.5, -120.6)"/>
      <path id="Box_Outline" d="M 42.994 94.900 L 31.259 89.096 L 30.117 69.382 L 43.370 65.240 L 58.662 69.375 L 57.301 88.605 L 42.994 94.900 L 42.994 94.900 Z M 31.741 88.778 L 43.006 94.349 L 56.824 88.269 L 58.135 69.749 L 43.380 65.760 L 30.638 69.742 L 31.741 88.778 L 31.741 88.778 Z " transform="matrix(1.9799314737319946, 0, 0, 1.9799314737319946, -52.5, -120.6)"/>
    </g>
    <path id="R_Ribbon" fill="#CECECE" stroke="#000000" stroke-width="0.5" d="M 35.375 67.917 L 48.722 72.229 C 48.722 72.229 48.125 92.642 48.065 92.669 C 48.005 92.696 53 90.656 53 90.656 L 53.891 70.819 L 39.782 66.446 L 35.375 67.917 Z " transform="matrix(1.9799314737319946, 0, 0, 1.9799314737319946, -52.5, -120.6)"/>
    <path id="L_Ribbon" fill="#CECECE" stroke="#000000" stroke-width="0.5" d="M 48.250 66.750 L 34.497 70.885 L 34.821 90.858 L 38.767 92.810 L 38.703 72.235 L 53 68.062 L 48.250 66.750 " transform="matrix(1.9799314737319946, 0, 0, 1.9799314737319946, -52.5, -120.6)"/>
    <g id="Bow">
      <g id="ID0.16421956615522504">
        <path id="ID0.3979996433481574" fill="#CECECE" d="M 52.517 70.871 C 48.506 70.871 44.900 70.198 43.762 69.962 L 44.330 69.181 C 45.332 69.234 46.319 69.261 47.268 69.261 C 56.501 69.261 60.747 66.797 62.075 65.812 C 61.830 66.957 60.812 68.291 60.801 68.307 L 60.581 68.592 L 60.926 68.698 C 61.375 68.837 61.806 68.906 62.156 68.939 C 59.763 70.221 56.525 70.871 52.517 70.871 L 52.517 70.871 Z " transform="matrix(1.9799314737319946, 0, 0, 1.9799314737319946, -52.5, -120.6)"/>
        <path id="ID0.905133131891489" d="M 61.614 66.423 C 61.315 67.136 60.841 67.844 60.602 68.154 L 60.164 68.725 L 60.852 68.937 C 61.018 68.988 61.181 69.030 61.338 69.064 C 59.063 70.098 56.105 70.621 52.517 70.621 C 48.902 70.621 45.618 70.071 44.194 69.794 L 44.453 69.438 C 45.413 69.486 46.359 69.511 47.269 69.511 C 55.449 69.510 59.769 67.574 61.614 66.423 M 62.375 65.240 C 62.375 65.240 58.588 69.011 47.269 69.011 C 46.304 69.011 45.286 68.984 44.208 68.924 L 43.333 70.126 C 43.333 70.126 47.591 71.122 52.516 71.122 C 56.141 71.122 60.126 70.583 63.041 68.710 C 63.041 68.710 62.934 68.719 62.751 68.719 C 62.387 68.719 61.719 68.682 60.998 68.460 C 60.999 68.458 62.458 66.563 62.375 65.240 L 62.375 65.240 Z " transform="matrix(1.9799314737319946, 0, 0, 1.9799314737319946, -52.5, -120.6)"/>
      </g>
      <g id="ID0.7600986659526825">
        <path id="ID0.16094404179602861" fill="#CECECE" d="M 34.563 71.131 C 31.664 71.131 29.327 70.481 27.605 69.195 C 27.864 69.160 28.180 69.089 28.509 68.948 L 28.765 68.839 L 28.629 68.596 C 28.621 68.581 27.931 67.333 27.721 66.203 C 28.849 67.278 31.967 69.519 38.368 69.519 C 39.038 69.519 39.736 69.494 40.442 69.443 L 40.858 70.231 C 40.017 70.471 37.433 71.131 34.563 71.131 L 34.563 71.131 Z " transform="matrix(1.9799314737319946, 0, 0, 1.9799314737319946, -52.5, -120.6)"/>
        <path id="ID0.39298297418281436" d="M 28.169 66.914 C 29.684 68.091 32.816 69.770 38.368 69.770 C 38.993 69.770 39.640 69.748 40.297 69.705 L 40.491 70.073 C 39.448 70.350 37.119 70.880 34.562 70.880 C 31.974 70.880 29.848 70.355 28.221 69.317 C 28.346 69.279 28.475 69.234 28.606 69.178 L 29.118 68.960 L 28.847 68.474 C 28.689 68.190 28.388 67.572 28.169 66.914 M 27.414 65.500 C 27.353 66.823 28.412 68.719 28.412 68.719 C 27.889 68.941 27.405 68.978 27.141 68.978 C 27.009 68.978 26.931 68.969 26.931 68.969 C 29.045 70.842 31.935 71.381 34.564 71.381 C 38.135 71.381 41.223 70.385 41.223 70.385 L 40.589 69.183 C 39.808 69.243 39.069 69.270 38.370 69.270 C 30.160 69.271 27.414 65.500 27.414 65.500 L 27.414 65.500 Z " transform="matrix(1.9799314737319946, 0, 0, 1.9799314737319946, -52.5, -120.6)"/>
      </g>
      <path id="ID0.8502797214314342" fill="#CECECE" stroke="#000000" stroke-width="0.5" d="M 43 67.562 C 43 67.562 46.562 64.762 47.875 63.262 C 49.188 61.762 52.268 60.394 52.674 62.176 C 53.080 63.958 53.063 63.813 54.156 64.688 C 55.249 65.563 56 67.844 52.562 69.063 C 49.124 70.282 45.896 70.522 43.927 70.241 C 41.958 69.960 42.370 68.063 43 67.562 Z " transform="matrix(1.9799314737319946, 0, 0, 1.9799314737319946, -52.5, -120.6)"/>
      <path id="ID0.009513366967439651" fill="#CECECE" stroke="#000000" stroke-width="0.5" d="M 41.031 67.203 C 41.031 67.203 39.209 65.229 38.271 64.646 C 37.333 64.063 36.250 62.500 35.354 63.708 C 34.458 64.916 33.208 65.208 32.333 66.062 C 31.458 66.916 32.541 67.541 34.145 68.250 C 35.749 68.959 39.602 69.479 41.030 69.562 C 42.458 69.645 41.770 67.781 41.031 67.203 Z " transform="matrix(1.9799314737319946, 0, 0, 1.9799314737319946, -52.5, -120.6)"/>
      <path id="ID0.3380579291842878" fill="#CECECE" stroke="#000000" stroke-width="0.5" d="M 40.792 70.333 C 41.421 70.685 41.782 71.062 43.668 70.524 C 44.020 70.424 44.082 69.958 43.583 68.958 C 43.083 67.958 44.250 67.416 42.958 67.166 C 41.666 66.916 40.541 67.040 40.583 67.916 C 40.625 68.792 39.870 69.818 40.792 70.333 Z " transform="matrix(1.9799314737319946, 0, 0, 1.9799314737319946, -52.5, -120.6)"/>
    </g>
  </g>
</svg>
